packages/icons/src/SVG/thumbs-up-solid.svg

<svg width="12" height="12" viewBox="0 0 12 12" >
<path d="M2 12V5H0V12H2Z" />
<path fill-rule="evenodd" clip-rule="evenodd" d="M4 0H5.5C6.32843 0 7 0.671573 7 1.5V4H10.5C11.3284 4 12 4.67157 12 5.5V8L10 12H3V5L4 3V0Z" />
</svg>

<!-- Generated by IcoMoon.io -->
<svg version="1.1" xmlns="http://www.w3.org/2000/svg" width="12" height="12" viewBox="0 0 12 12">
<title>thumbs-up-solid</title>
<path d="M2 12v-7h-2v7h2z"></path>
<path d="M4 0h1.5c0.828 0 1.5 0.672 1.5 1.5v2.5h3.5c0.828 0 1.5 0.672 1.5 1.5v2.5l-2 4h-7v-7l1-2v-3z"></path>
</svg>
